icons/communication/call-wave-24.svg

<svg width="24" height="24" viewBox="0 0 24 24" fill="none" xmlns="http://www.w3.org/2000/svg">
<path d="M13.5 0.75C13.5 0.335786 13.8358 0 14.25 0C19.6348 0 24 4.36522 24 9.75C24 10.1642 23.6642 10.5 23.25 10.5C22.8358 10.5 22.5 10.1642 22.5 9.75C22.5 5.19365 18.8063 1.5 14.25 1.5C13.8358 1.5 13.5 1.16421 13.5 0.75Z" fill="black"/>
<path fill-rule="evenodd" clip-rule="evenodd" d="M8.18777 2.87559C7.02204 1.70986 5.1323 1.70986 3.96657 2.87559L3.2379 3.60426C2.224 4.61815 1.81469 6.06813 2.08134 7.48138C2.66522 10.5698 4.44531 13.8988 7.27351 16.727C10.1017 19.5552 13.431 21.3354 16.5194 21.9192C17.9327 22.1859 19.3824 21.7765 20.3963 20.7626L21.1238 20.0351C22.2895 18.8693 22.2895 16.9796 21.1238 15.8139L19.8129 14.5029C18.8653 13.5554 17.3284 13.5547 16.3814 14.5034L15.3725 15.5134C15.3552 15.5307 15.3344 15.5409 15.3158 15.5448C15.2986 15.5483 15.2879 15.5457 15.2817 15.543C13.8832 14.9253 12.4958 13.9919 11.2522 12.7483C10.0088 11.5049 9.07647 10.1175 8.45983 8.719C8.45712 8.71286 8.45437 8.70216 8.45798 8.6847C8.46181 8.66618 8.47228 8.64522 8.48952 8.62788L9.40482 7.7137C10.4203 6.69819 10.4742 5.162 9.49982 4.18764L8.18777 2.87559ZM7.12711 3.93625C6.54717 3.35631 5.60717 3.35631 5.02723 3.93625L4.29856 4.66492C3.65626 5.30722 3.37495 6.24681 3.55523 7.20274C4.07558 9.95477 5.68852 13.0207 8.33417 15.6664C10.9799 18.3121 14.0457 19.925 16.7978 20.4453C17.7537 20.6256 18.6933 20.3443 19.3356 19.702L20.0632 18.9744C20.6431 18.3945 20.6431 17.4545 20.0632 16.8745L18.7522 15.5636C18.39 15.2013 17.8035 15.202 17.4429 15.5632L16.4336 16.5736C15.9886 17.0186 15.294 17.188 14.6759 16.9153C13.104 16.2209 11.5631 15.1805 10.1915 13.809C8.81987 12.4373 7.78059 10.8964 7.08742 9.32439C6.81482 8.70641 6.98427 8.01182 7.42918 7.56691L8.34416 6.65303C8.82846 6.16873 8.7746 5.58375 8.43916 5.2483L7.12711 3.93625Z" fill="black"/>
<path d="M13.75 4C13.3358 4 13 4.33579 13 4.75C13 5.16421 13.3358 5.5 13.75 5.5C16.3734 5.5 18.5 7.62665 18.5 10.25C18.5 10.6642 18.8358 11 19.25 11C19.6642 11 20 10.6642 20 10.25C20 6.79822 17.2018 4 13.75 4Z" fill="black"/>
</svg>

<svg xmlns="http://www.w3.org/2000/svg" width="24" height="24"><path d="M13.5.75a.75.75 0 01.75-.75A9.75 9.75 0 0124 9.75a.75.75 0 01-1.5 0 8.25 8.25 0 00-8.25-8.25.75.75 0 01-.75-.75z"/><path fill-rule="evenodd" d="M8.188 2.876a2.985 2.985 0 00-4.221 0l-.73.728C2.225 4.618 1.816 6.068 2.082 7.481c.584 3.089 2.364 6.418 5.193 9.246 2.828 2.828 6.157 4.608 9.245 5.192 1.414.267 2.863-.143 3.877-1.156l.728-.728a2.985 2.985 0 000-4.221l-1.311-1.311a2.426 2.426 0 00-3.432 0l-1.008 1.01a.115.115 0 01-.057.032.056.056 0 01-.034-.002c-1.399-.618-2.786-1.551-4.03-2.795-1.243-1.243-2.176-2.63-2.792-4.029a.055.055 0 01-.002-.034.116.116 0 01.032-.057l.915-.914c1.015-1.016 1.07-2.552.095-3.526L8.188 2.876zm-1.06 1.06c-.58-.58-1.52-.58-2.1 0l-.73.729c-.642.642-.923 1.582-.743 2.538.52 2.752 2.134 5.818 4.78 8.463 2.645 2.646 5.71 4.259 8.463 4.78.956.18 1.895-.102 2.538-.744l.727-.728c.58-.58.58-1.52 0-2.1l-1.31-1.31a.925.925 0 00-1.31 0l-1.01 1.01a1.587 1.587 0 01-1.757.341c-1.572-.694-3.113-1.734-4.485-3.106-1.371-1.372-2.41-2.913-3.104-4.485a1.587 1.587 0 01.342-1.757l.915-.914c.484-.484.43-1.07.095-1.405L7.127 3.936z"/><path d="M13.75 4a.75.75 0 000 1.5 4.75 4.75 0 014.75 4.75.75.75 0 001.5 0A6.25 6.25 0 0013.75 4z"/></svg>
